X:1
T:Title
%%score 1 { 2 | 3 }
L:1/8
Q:1/4=90
M:6/8
K:C
V:1 treble nm="Grand Piano, Soprano"
V:2 bass nm="Choir Pad, It Truly Is Marvelous"
V:3 bass 
V:1
 [EG][Ec][Ec] [Ec][EB][EA] | [EG][EA][EB] [EA][EG][CE] | C [EG]2- [EG] [EG]2- | %3
w: By~William~Edie~Marks * * * * *|||
 [EG] [FG]2- [FG]2- [FG]/ z/ | [FG][FB][FB] [FB][FB][FA] | [FG][FA][FB] [FA][DF][CE] | %6
w: |||
 [B,D] [CG]2- [CG] [FG]2- | [FG] [EG]2- [EG]2- [EG]/ z/ | [EG][Ge][Ge] [Ge][Ge][Gd] | %9
w: |||
 [Gc][Ac][Ac] [Ac][Ac][GB] | [FA] [EG]2- [EG] [^Fe]2- | [Fe] [Gd]2- [Gd]2- [Gd]/ z/ | %12
w: |||
 [Gd][Ge][Ge] [Ge][Ge][Gd] | [Gc][Ac][Ac] [Ac][Ac][GB] | [FA] [EG]2- [EG] [Fd]2- | %15
w: |||
 [Fd] [Ec]2- [Ec]3- | [Ec]3 z3 |] %17
w: ||
V:2
 CG,G, G,G,A, | CCC CC[K:bass]G, | E, C2- C _B,2- | B, =B,2- B,2- B,/ z/ | B,[K:treble]DD DDC | %5
 B,B,B, B,B,G, | G, G,2- G, B,2- | B,[K:treble] C2- C2- C/ z/ | CCC CCB, | CCC CCC | C C2- C C2- | %11
 C[K:bass] B,2- B,2- B,/ z/ | B,C[K:treble]C CCB, | CCC CCC | C C2- C[K:bass] B,2- | B, G,2- G,3- | %16
 G,3 z3 |] %17
V:3
 C,C,C, C,C,C, | C,C,C, C,C,C, | C, C,2- C, ^C,2- | C, D,2- D,2- D,/ z/ | G,G,G, G,G,G, | %5
 G,G,G, G, .G,2 | F, E,2- E, D,2- | D, C,2- C,2- C,/ z/ | C,C,C, C,C,D, | E,F,F, F,F,F, | %10
 F, C,2- C, D,2- | D, G,2- G,2- G,/ z/ | G,C,C, C,C,D, | E,F,F, F,F,F, | F, G,2- G, G,,2- | %15
 G,, C,2- C,3- | C,3 z3 |] %17

